img/logo.svg

<svg width="178" height="87" viewBox="0 0 178 87" fill="none" xmlns="http://www.w3.org/2000/svg">
<path d="M10.95 37.8814L0 32.8363L11.8544 27.3617C12.1905 10.9838 28.0139 7.43341 34.5763 8.06898C41.1387 8.70528 60.2298 20.4143 52.5373 44.3313C49.9161 52.4819 50.5349 73.5703 81.1231 71.6227C78.8256 75.9526 68.0414 93.9121 32.9413 82.4872C23.2099 79.3196 9.34357 63.6387 10.95 37.8814Z" fill="#FFBD54"/>
<path d="M110.818 32.7034C111.778 21.1025 105.764 10.5871 102.242 8.16466C98.9544 5.90511 98.9427 15.66 96.0154 21.0104C91.6695 19.1994 86.8545 18.1825 81.7802 18.1825C76.7154 18.1825 71.9085 19.195 67.5698 21.0002C64.6477 15.6468 64.633 5.90511 61.3485 8.1632C57.8288 10.5754 51.8275 21.0842 52.7713 32.6625C49.1486 37.7441 47.0344 43.8294 47.0344 50.3758C47.0344 68.1563 62.5912 81.3432 81.7795 81.3432C100.969 81.3432 116.524 68.1563 116.524 50.3758C116.524 43.847 114.421 37.7769 110.818 32.7034Z" fill="#78C0DE"/>
<path d="M109.119 52.411C110.017 36.4941 116.096 34.2937 116.894 24.5601C118 11.0817 127.285 1.28155 131.873 0.0747093C136.46 -1.12921 130.608 12.5493 134.719 17.1919C143.319 14.2106 148.78 16.7492 153.093 21.4151C157.409 26.0825 151.776 30.5395 160.223 29.3444C163.698 28.8513 167.31 28.9674 170.333 29.7374C170.619 29.5482 170.928 29.3867 171.264 29.2706C173.642 28.4473 176.316 29.9325 177.239 32.5923C177.587 33.5997 177.632 34.6305 177.427 35.5685C177.533 36.0821 177.576 36.6271 177.544 37.2064C177.077 45.3884 166.995 56.6577 160.73 57.4788C154.467 58.3014 147.815 57.2194 147.646 69.7525C147.42 86.4453 110.469 93.0515 101.418 76.1045C108.042 71.3129 108.434 64.5672 109.119 52.411Z" fill="black"/>
<path d="M136.872 22.1398C141.197 22.5219 144.633 20.2244 147.978 17.6485C146.633 17.4827 145.147 17.4724 143.48 17.6624C140.973 13.1316 148.233 3.0458 144.274 3.19191C140.705 3.31902 131.571 8.20997 127.36 17.075C130.416 19.1286 132.848 22.3575 136.872 22.1398Z" fill="black"/>
<path d="M38.1417 34.4355C37.6252 34.2806 37.0927 34.239 36.563 34.3149C35.0165 34.5356 33.7096 35.7482 33.3187 37.3145L29.8494 50.2764L22.9312 38.7785C22.0634 37.3949 20.4569 36.611 18.9316 36.8287C18.4114 36.9032 17.9307 37.0873 17.5019 37.3781C16.531 37.9771 15.8618 38.8793 15.6156 39.9225C15.379 40.9146 15.5572 41.9498 16.1 42.8147L27.8025 62.4625C27.8865 62.632 28.0172 62.8774 28.2452 63.0769C28.3248 63.166 28.4168 63.239 28.5206 63.2975C28.5206 63.299 28.5206 63.299 28.5213 63.2997L28.625 63.4487L28.769 63.5576C28.8208 63.597 28.88 63.6387 28.9472 63.6759L28.975 63.8702L29.4688 64.0353L29.62 64.1478L30.7399 64.3897L31.0731 64.4525L31.2396 64.4284C31.5245 64.443 31.7357 64.413 31.8577 64.3962C32.0242 64.3728 32.2419 64.3414 32.5115 64.2465L32.7635 64.2107L32.9695 64.0689L33.9748 63.4232L34.1808 63.1485C34.2407 63.082 34.3276 62.9863 34.4167 62.8489C34.4869 62.7671 34.5468 62.6765 34.5913 62.5779C34.6213 62.5304 34.652 62.4815 34.6805 62.4311C34.6863 62.4216 34.6921 62.4128 34.6972 62.4033C34.7951 62.2981 34.8733 62.1761 34.9288 62.0439C35.0282 61.8576 35.1085 61.6363 35.1538 61.4251L41.0018 39.2899C41.2881 38.2825 41.1691 37.2385 40.6665 36.3517C40.1339 35.41 39.2273 34.7262 38.1417 34.4355Z" fill="white"/>
<path d="M81.5786 34.2806C72.2607 34.4435 64.7588 42.3837 64.8567 51.9998C65.0963 61.6874 72.7041 69.2017 82.177 69.1053H82.1872C87.1731 69.0176 91.2086 67.444 94.5179 64.2947C95.3237 63.5335 95.7635 62.5648 95.7883 61.4945C95.8219 60.1197 95.1608 58.915 94.5194 58.2334C93.829 57.4423 92.617 56.9849 91.2634 57.0083C89.9038 57.0324 88.6488 57.5416 87.7977 58.4095C86.7055 59.2292 84.8054 59.7763 82.9214 59.8099C82.6554 59.8143 82.3925 59.8077 82.1404 59.7917C80.1731 59.658 77.9384 58.6725 76.8294 57.4481L76.7396 57.3575C76.2348 56.8966 75.7862 56.2427 75.4348 55.4684L94.027 55.144C96.4487 55.1016 98.316 53.5967 98.6228 51.4628C98.6951 51.1947 98.7083 50.9018 98.7024 50.5643L98.6929 50.1632C97.9741 40.7992 90.7761 34.1199 81.5786 34.2806ZM89.2186 47.065L75.0418 47.3126C76.012 45.3935 78.1583 43.3458 81.7101 43.0858C85.3504 43.3422 87.9358 45.2306 89.2186 47.065Z" fill="white"/>
<path d="M138.074 49.6825C140.609 49.9469 142.971 48.0578 143.232 45.5572C143.496 43.0112 141.616 40.7232 139.038 40.4544L138.796 40.4288L139.581 32.8999C139.851 30.3123 138.036 28.074 135.449 27.8037C132.827 27.5297 130.562 29.3429 130.292 31.9297L129.505 39.4579L129.02 39.4075C126.432 39.1379 124.193 40.9526 123.923 43.5409C123.658 46.0846 125.511 48.3704 128.056 48.6371L128.541 48.6875L126.906 64.3517C126.443 68.7699 129.663 72.7411 134.083 73.2028C136.67 73.4731 138.908 71.6592 139.18 69.0702C139.407 66.8976 138.201 64.9711 136.31 64.2202L137.83 49.6562L138.074 49.6825Z" fill="white"/>
</svg>

<svg width="178" height="87" fill="none" xmlns="http://www.w3.org/2000/svg"><path d="M10.95 37.881L0 32.836l11.854-5.474c.337-16.378 16.16-19.929 22.722-19.293 6.563.636 25.654 12.345 17.961 36.262-2.62 8.15-2.002 29.24 28.586 27.292-2.297 4.33-13.082 22.29-48.182 10.864C23.21 79.32 9.344 63.64 10.95 37.881z" fill="#FFBD54"/><path d="M110.818 32.703c.96-11.6-5.054-22.116-8.576-24.538-3.288-2.26-3.3 7.495-6.227 12.845a36.95 36.95 0 00-14.235-2.828A36.936 36.936 0 0067.57 21c-2.922-5.353-2.937-15.095-6.221-12.837-3.52 2.412-9.521 12.921-8.578 24.5-3.622 5.081-5.737 11.166-5.737 17.713 0 17.78 15.557 30.967 34.745 30.967 19.19 0 34.745-13.187 34.745-30.967 0-6.529-2.103-12.6-5.706-17.673z" fill="#78C0DE"/><path d="M109.119 52.411c.898-15.917 6.977-18.117 7.775-27.85C118 11.08 127.285 1.28 131.873.074c4.587-1.204-1.265 12.474 2.846 17.117 8.6-2.981 14.061-.443 18.374 4.223 4.316 4.668-1.317 9.125 7.13 7.93 3.475-.494 7.087-.378 10.11.392.286-.189.595-.35.931-.466 2.378-.824 5.052.662 5.975 3.321a5.513 5.513 0 01.188 2.977c.106.513.149 1.058.117 1.637-.467 8.182-10.549 19.452-16.814 20.273-6.263.822-12.915-.26-13.084 12.273-.226 16.693-37.177 23.3-46.228 6.353 6.624-4.792 7.016-11.538 7.701-23.694z" fill="#000"/><path d="M136.872 22.14c4.325.382 7.761-1.916 11.106-4.492-1.345-.165-2.831-.176-4.498.014-2.507-4.53 4.753-14.616.794-14.47-3.569.127-12.703 5.018-16.914 13.883 3.056 2.054 5.488 5.283 9.512 5.065z" fill="#000"/><path d="M38.142 34.435a3.659 3.659 0 00-1.579-.12c-1.547.22-2.853 1.433-3.244 3l-3.47 12.961-6.918-11.498c-.868-1.383-2.474-2.167-4-1.95-.52.075-1 .26-1.43.55-.97.6-1.64 1.501-1.885 2.544a3.778 3.778 0 00.484 2.893l11.702 19.648c.085.169.215.414.443.614a1.071 1.071 0 00.276.223l.104.149.144.109c.052.039.111.08.178.118l.028.194.494.165.151.113 1.12.242.333.063.167-.025c.285.015.496-.015.618-.032.166-.023.384-.055.653-.15l.252-.035.206-.142 1.006-.646.206-.275c.06-.066.147-.162.236-.3.07-.08.13-.172.174-.27.03-.048.061-.097.09-.147l.016-.028c.098-.105.176-.227.232-.36.1-.185.18-.407.225-.618l5.848-22.135a3.805 3.805 0 00-.336-2.938c-.532-.942-1.439-1.626-2.524-1.916zM81.579 34.28c-9.318.163-16.82 8.104-16.722 17.72.24 9.687 7.847 17.202 17.32 17.105h.01c4.986-.087 9.022-1.661 12.33-4.81.807-.762 1.246-1.73 1.271-2.8.034-1.375-.627-2.58-1.269-3.262-.69-.79-1.902-1.248-3.256-1.225-1.36.024-2.614.534-3.465 1.401-1.093.82-2.993 1.367-4.877 1.4a9.821 9.821 0 01-.78-.017c-1.968-.134-4.203-1.12-5.312-2.344l-.09-.09c-.504-.461-.953-1.115-1.304-1.89l18.592-.324c2.422-.042 4.289-1.547 4.596-3.681.072-.268.085-.561.08-.899l-.01-.4c-.719-9.365-7.917-16.044-17.114-15.883zm7.64 12.785l-14.177.248c.97-1.92 3.116-3.967 6.668-4.227 3.64.256 6.226 2.145 7.509 3.979zM138.074 49.682c2.535.265 4.897-1.624 5.158-4.125.264-2.546-1.616-4.834-4.194-5.103l-.242-.025.785-7.53c.27-2.587-1.545-4.825-4.132-5.095-2.622-.274-4.887 1.539-5.157 4.126l-.787 7.528-.485-.05c-2.588-.27-4.827 1.545-5.097 4.133a4.646 4.646 0 004.133 5.096l.485.05-1.635 15.665c-.463 4.418 2.757 8.39 7.177 8.85 2.587.271 4.825-1.543 5.097-4.132.227-2.172-.979-4.099-2.87-4.85l1.52-14.564.244.026z" fill="#fff"/></svg>
